X: 20564
T: John Naughton's
R: jig
M: 6/8
K: Gmixolydian
BDD BAG|EDD D GA|BDD BAG|EAA AGA|
BDD BAG|EDD d2 c|BdB AGA|1 BGG G2 A:|2 BGG G3||
f3 fdc|BGG G eg|f2 f fdc|dgg gfd|
fgf fdc|BGG f2 f|dfg fdc|1 BGG G3:|2 BGG G2 A||

